assets/icons/icon_media_tw_green.svg

<svg width="24" height="24" viewBox="0 0 24 24" fill="none" xmlns="http://www.w3.org/2000/svg">
<path d="M23.4065 5.17532C22.5733 5.54423 21.6854 5.78876 20.7597 5.90749C21.712 5.33362 22.4388 4.43184 22.7805 3.34488C21.8927 3.87917 20.9124 4.25657 19.8677 4.46717C19.0246 3.56114 17.8231 3 16.5123 3C13.9692 3 11.9218 5.08344 11.9218 7.63757C11.9218 8.00507 11.9526 8.35843 12.0282 8.69484C8.20929 8.50685 4.83011 6.65945 2.56005 3.84525C2.16374 4.53926 1.93127 5.33363 1.93127 6.18877C1.93127 7.79446 2.75051 9.21782 3.97166 10.0419C3.23365 10.0277 2.50964 9.81147 1.89626 9.47083C1.89626 9.48496 1.89626 9.50334 1.89626 9.52171C1.89626 11.7748 3.48852 13.6462 5.57653 14.0773C5.20262 14.1805 4.7951 14.23 4.37218 14.23C4.07809 14.23 3.78121 14.213 3.50253 14.1508C4.0977 15.9869 5.78659 17.3367 7.79477 17.3806C6.23192 18.6145 4.24754 19.358 2.09932 19.358C1.72261 19.358 1.3613 19.341 1 19.2944C3.03479 20.6188 5.44629 21.375 8.04685 21.375C16.4997 21.375 21.121 14.3077 21.121 8.18175C21.121 7.9768 21.114 7.77891 21.1042 7.58244C22.0159 6.92942 22.7819 6.11386 23.4065 5.17532Z" fill="#03CCAB"/>
</svg>

<svg width="24" height="24" fill="none" xmlns="http://www.w3.org/2000/svg"><path d="M23.407 5.175a9.508 9.508 0 0 1-2.647.732 4.603 4.603 0 0 0 2.02-2.562 9.128 9.128 0 0 1-2.912 1.122A4.584 4.584 0 0 0 16.512 3c-2.543 0-4.59 2.083-4.59 4.638 0 .367.03.72.106 1.057C8.21 8.507 4.83 6.659 2.56 3.845a4.701 4.701 0 0 0-.629 2.344c0 1.605.82 3.029 2.04 3.853a4.505 4.505 0 0 1-2.075-.571v.05c0 2.254 1.593 4.125 3.68 4.556a4.544 4.544 0 0 1-1.204.153c-.294 0-.59-.017-.87-.08.596 1.837 2.285 3.187 4.293 3.23a9.176 9.176 0 0 1-5.696 1.978c-.376 0-.738-.017-1.099-.064a12.846 12.846 0 0 0 7.047 2.081c8.453 0 13.074-7.067 13.074-13.193 0-.205-.007-.403-.017-.6a9.211 9.211 0 0 0 2.303-2.407Z" fill="#03CCAB"/></svg>
